X:992
T:The girl I left behind me
T:The rambling laborer
T:I love my love in the morning
T:As slow our ship
R:Other
O:England, Ireland
B:O'Neill's 299
B:Kerr's Third p41
Z:Transcription, arrangement, chords:Mike Long
M:2/4
L:1/16
K:G
gf|\
"G"e2d2 B2G2|"C"ABAG E2D2|"G"G2G2 GABc|"D"d4 B2gf|\
"G"e2d2 B2G2|"C"ABAG E2G2|"D"F2A2 D2EF|"G"G4 G2:|
|:GA|\
"G"B2d2 e2f2|g2d2 B2A2|BGBd edef|"G"g2ag "D"f2gf|\
"G"e2d2 B2G2|"C"ABAG E2G2|"D"F2A2 D2EF|"G"G4 G2:|
